assets/img/braze_icons/git-branch-01.svg

<svg fill="none" height="24" viewBox="0 0 24 24" width="24" xmlns="http://www.w3.org/2000/svg"><path clip-rule="evenodd" d="m4 3c0-.55228-.44771-1-1-1-.55228 0-1 .44772-1 1v10.2413c-.00001.805-.00002 1.4693.0442 2.0105.04592.5621.14448 1.0788.39178 1.5642.38349.7526.99541 1.3645 1.74806 1.748.48533.2473 1.00204.3459 1.56414.3918.54119.0442 1.20554.0442 2.0105.0442h6.36732c.4441 1.7252 2.0102 3 3.874 3 2.2091 0 4-1.7909 4-4s-1.7909-4-4-4c-1.8638 0-3.4299 1.2748-3.874 3h-6.326c-.85658 0-1.43887-.0008-1.88896-.0376-.43842-.0358-.66262-.1007-.81902-.1804-.37632-.1917-.68228-.4977-.87403-.874-.07969-.1564-.14462-.3806-.18044-.819-.03677-.4501-.03755-1.0324-.03755-1.889v-4.2h10.126c.4441 1.7252 2.0102 3 3.874 3 2.2091 0 4-1.7909 4-4 0-2.20914-1.7909-4-4-4-1.8638 0-3.4299 1.27477-3.874 3h-10.126z" fill="#801ed7" fill-rule="evenodd"/></svg>

<svg width="24" height="24" viewBox="0 0 24 24" fill="none" xmlns="http://www.w3.org/2000/svg">
<path fill-rule="evenodd" clip-rule="evenodd" d="M4 3C4 2.44772 3.55229 2 3 2C2.44772 2 2 2.44772 2 3V13.2413C1.99999 14.0463 1.99998 14.7106 2.0442 15.2518C2.09012 15.8139 2.18868 16.3306 2.43598 16.816C2.81947 17.5686 3.43139 18.1805 4.18404 18.564C4.66937 18.8113 5.18608 18.9099 5.74818 18.9558C6.28937 19 6.95372 19 7.75868 19H14.126C14.5701 20.7252 16.1362 22 18 22C20.2091 22 22 20.2091 22 18C22 15.7909 20.2091 14 18 14C16.1362 14 14.5701 15.2748 14.126 17H7.8C6.94342 17 6.36113 16.9992 5.91104 16.9624C5.47262 16.9266 5.24842 16.8617 5.09202 16.782C4.7157 16.5903 4.40974 16.2843 4.21799 15.908C4.1383 15.7516 4.07337 15.5274 4.03755 15.089C4.00078 14.6389 4 14.0566 4 13.2V9L14.126 9C14.5701 10.7252 16.1362 12 18 12C20.2091 12 22 10.2091 22 8C22 5.79086 20.2091 4 18 4C16.1362 4 14.5701 5.27477 14.126 7L4 7V3Z" fill="#801ED7"/>
</svg>
